images/twitter.svg

<svg width="16" height="15" viewBox="0 0 16 15" fill="none" xmlns="http://www.w3.org/2000/svg">
<g clip-path="url(#clip0_11534_7043)">
<g clip-path="url(#clip1_11534_7043)">
<path d="M10.3467 0.511449C11.9467 0.0134736 13.12 0.810234 13.76 1.60699C14.2933 1.4078 14.9333 1.20861 15.5733 1.00942C15.5733 1.80618 15.04 2.40375 14.72 2.60294C15.4667 2.80213 16 2.20456 16 2.20456C15.8933 3.10092 15.04 3.89768 14.5067 4.09687C14.2933 10.3714 11.52 14.4547 5.01333 14.3552C4.48 14.3552 5.12 14.3552 4.58667 14.3552C4.26667 14.3552 0.64 13.9568 0 12.5624C2.13333 12.7616 3.62667 12.1641 4.37333 11.4669C3.52 11.1681 1.81333 11.0685 1.6 8.67824C1.92 8.87743 2.13333 8.97702 2.77333 8.87743C1.6 8.08067 0.32 7.3835 0.426667 5.3916C0.746667 5.69039 1.38667 5.88958 1.70667 5.78998C1.06667 5.59079 -0.213333 2.70254 0.853333 1.20861C2.56 2.90173 4.37333 4.59484 7.57333 4.69444C7.78667 2.60294 8.64 1.20861 10.3467 0.511449Z" fill="black"/>
</g>
</g>
<defs>
<clipPath id="clip0_11534_7043">
<rect width="16" height="14" fill="white" transform="translate(16 14.3569) rotate(-180)"/>
</clipPath>
<clipPath id="clip1_11534_7043">
<rect width="16" height="14" fill="white" transform="translate(0 0.356934)"/>
</clipPath>
</defs>
</svg>

<svg width="16" height="15" fill="none" xmlns="http://www.w3.org/2000/svg"><g clip-path="url(#a)"><g clip-path="url(#b)"><path d="M10.35.51c1.6-.5 2.77.3 3.41 1.1.53-.2 1.17-.4 1.81-.6a2 2 0 0 1-.85 1.6c.75.2 1.28-.4 1.28-.4-.1.9-.96 1.69-1.5 1.89-.2 6.27-2.98 10.35-9.49 10.26H4.6c-.32 0-3.95-.4-4.59-1.8 2.13.2 3.63-.4 4.37-1.1-.85-.3-2.56-.4-2.77-2.78.32.2.53.3 1.17.2C1.6 8.08.32 7.38.43 5.39c.32.3.96.5 1.28.4-.64-.2-1.92-3.09-.86-4.58 1.71 1.7 3.52 3.38 6.72 3.48C7.8 2.6 8.64 1.21 10.35.51Z" fill="#000"/></g></g><defs><clipPath id="a"><path fill="#fff" transform="rotate(-180 8 7.18)" d="M0 0h16v14H0z"/></clipPath><clipPath id="b"><path fill="#fff" transform="translate(0 .36)" d="M0 0h16v14H0z"/></clipPath></defs></svg>
